symbols/web/accessibility_new/materialsymbolsoutlined/accessibility_new_wght200_40px.svg

<svg xmlns="http://www.w3.org/2000/svg" height="40" width="40"><path d="M20 9.5q-1.125 0-1.938-.792-.812-.791-.812-1.916 0-1.167.792-1.959.791-.791 1.958-.791 1.125 0 1.938.791.812.792.812 1.917 0 1.167-.792 1.958Q21.167 9.5 20 9.5Zm-3.5 26.333V13.875q-2.708-.208-5.167-.562-2.458-.355-4.666-.896L7 11.042q3.25.75 6.396 1.083 3.146.333 6.604.333t6.604-.333q3.146-.333 6.438-1.083l.291 1.375q-2.208.541-4.666.896-2.459.354-5.167.562v21.958h-1.417V25.208h-4.166v10.625Z"/></svg>

<svg xmlns="http://www.w3.org/2000/svg" height="40" width="40"><path d="M20 9.5Q18.875 9.5 18.062 8.708Q17.25 7.917 17.25 6.792Q17.25 5.625 18.042 4.833Q18.833 4.042 20 4.042Q21.125 4.042 21.938 4.833Q22.75 5.625 22.75 6.75Q22.75 7.917 21.958 8.708Q21.167 9.5 20 9.5ZM16.5 35.833V13.875Q13.792 13.667 11.333 13.313Q8.875 12.958 6.667 12.417L7 11.042Q10.25 11.792 13.396 12.125Q16.542 12.458 20 12.458Q23.458 12.458 26.604 12.125Q29.75 11.792 33.042 11.042L33.333 12.417Q31.125 12.958 28.667 13.313Q26.208 13.667 23.5 13.875V35.833H22.083V25.208H17.917V35.833Z"/></svg>
